X:1

T:Rob Roy MacGregor

M:C

L:1/8

R:Strathspey

B:Stewart-Robertson – The Athole Collection  (1884)

Z:AK/Fiddler’s Companion

K:Emin

B|:G<E E2 D/F/G B,2|E>FG>A B>AG>e|G<E E2 E/F/G B,2|E>FG>A B2 BA:|

|:c|d<G d>e d>BA>B|d>Ge>G B2 B>c|1 d>Gd>e d>BA>B|

G>EG>A B2B||2 d<B g>e d>BA>B|E>FG>A B2B||

|:^d|e>E E2 E/F/G B,2|E>FG>A B>AG>e|G<E E2 E/F/G B,2|E>FG>A B2B:|

A|G<d d>B d<G d>c|B<e e>f g>fe>g|G<d d>B d<G d>B|G<EG>A B2 B>A|

G<d d>B d<G d>c|B<e e>f g>fe>f|g<be<g B<gA<B|E>FG>A B2 B>A||

                       

ROB ROY’S CAVE (Loch Lomond).  Scottish, Strathspey. E Minor. Standard tuning. AB. Composed by Nathaniel Gow (1763-1831). Rob Roy’s Cave is on the eastern shore of Loch Lomond, the largest body of freshwater in Britain. It was one of the hiding places of the outlaw Rob Roy MacGregor. Gow (Sixth Collection of Strathspey Reels), 1822; pg. 17.

